X:1
T:I Love His Appearing
T:Thoro Harris, 1916
T:I Love His Appearing
T:Public Domain
T:Public Domain
T:Public Domain
C:Thoro Harris, 1916
Z:Public Domain
%%score ( 1 2 ) ( 3 4 )
L:1/8
M:6/4
K:Ab
V:1 treble 
V:2 treble 
V:3 bass 
V:4 bass 
V:1
 E>E | E2 [EF]2 [EG]2 [EA]4 c>B | A4 F2 E4 EE | A3 G A2 c2 B2 F2 | [DB]6- [DB]4 E>E | %5
w: 1.~There was|One came to die in the|sin- ner’s stead, Who the|full- ness of grace brought to|is * com- ing|
w: 2.~Then the|child- ren of light who in|Je- sus sleep, Will a-|wake, by His word formed a-|this * hope in|
w: 3.~All cre-|a- tion has groaned in the|thralls of pain, While the|faith- ful, the val- iant and|“O * mer- ci-|
w: 4.~Then the|heav- ens shall melt at their|Mak- er’s voice, And the|earth shall be fa- shioned a-|the * glo- ri-|
 E2 F2 [DG]2 A4 c>B | A4 F2 E4 EE | e2 [EAc]2 A2 E c3 [GB]2 | A6- A2 z2 ||"^Refrain" [_GA]2 | %10
w: a- gain, Judge of quick and|dead, And I love His|ap- pear- ing, don’t you? *|||
w: my heart grow- eth strong and|deep, And I long to|be like Him, don’t you? I|love *|ap-|
w: ful Christ! take Thy pow’r and|reign,” For they look for|His king- dom, don’t you? *|||
w: ous tho’t how the saints re-|joice! For they know He|is com- ing, don’t you? *|||
 [FA]3 [=EG] [EG]2 [GB] [FA]3 [DF]2 | [CE]4 [CA]2 [Ec]4 [Ec]2 | [Ac]3 [Gc] [Fc]2 [A=d] [Ac]3 (AA) | %13
w: |||
w: pear- ing, I do, (don’t you?)|The glad day is|near- ing, ’tis true; He will *|
w: |||
w: |||
 (G G3 A2 [Be]4) E>E | E2 [=DF]2 [_DG]2 [CA]4 [Ec]>[DB] | [CA]2 [DB]2 [Ec]2 [Fd]4 [Ff]2 | %16
w: |||
w: us * * * on high|saints can- not die; I love|ap- pear- ing, don’t you?|
w: |||
w: |||
 [Ae]2 [Ec]2 [=DA]2 E [Ac]3 [GB]2 | A6- A2 z2 |] %18
w: ||
w: ||
w: ||
w: ||
V:2
 x2 | x12 | x12 | E6 =D6 | x12 | x12 | x12 | x12 | A6- A2 x2 || x2 | x12 | x12 | x10 =d2 | %13
w: |||view; He||||||||||
w: |||new; O|||||His *||||take|
w: |||true; Cry,||||||||||
w: |||new; At||||||||||
 e6- x3 E>E x | E2 x10 | x12 | x6 E x5 | A6- A2 x2 |] %18
w: |||||
w: Where * the|His||||
w: |||||
w: |||||
V:3
 E,>F, | [E,A,]2 [D,B,]2 [B,,D]2 [A,,C]4 E>D | C4 =B,2 [A,,,A,,C]4 DD | C3 B, A,2 A,2 F,2 B,2 | %4
w: ~ ~|~ ~ ~ ~ ~ ~|~ ~ ~ ~ ~|~ ~ * ~ ~ ~|
 ([E,-A,]6 [E,G,]4) D>D | [A,,_G,C]2 [A,,F,D]2 [A,,_F,B,]2 [A,,C]4 E>D | C4 =B,2 [A,,,A,,C]4 z2 | %7
w: ~ * ~ ~|~ ~ ~ ~ ~ ~|~ ~ ~|
 z2 [C,A,]2 [D,B,]2 C E3 D2 | [A,,C]6- [A,,C]2 z2 || [C,E]2 | %10
w: ~ ~ ~ ~ ~|~ *|~|
 [D,D]3 [D,D] [D,D]2 [D,D] [D,D]3 [F,A,]2 | [A,C]4 z2 z4 A,2 | [F,C]3 [F,B,] [F,A,]2 B, B,3 B,B, | %13
w: ~ ~ ~ ~ ~ ~|Hal- le-|jah ’tis~~~true; * * * * *|
 B, B,3 C2 [E,D]4 [E,G,]->[E,G,] | [E,G,]2 [E,A,]2 [E,B,]2 [A,,A,]4 [A,,A,]>[A,,A,] | %15
w: ||
 A,2 A,2 A,2 [D,A,]4 (3(A,B,[=D,=B,]) | [E,C]2 [E,A,]2 [F,B,]2 [E,C] [E,E]3 [E,D]2 | %17
w: ||
 [A,,C]6- [A,,C]2 z2 |] %18
w: |
V:4
 E,2 | x12 | [A,,,A,,]6- x6 | C,6 B,,6 | x12 | x12 | [A,,,A,,]6- x6 | x6 E,6 | x10 || x2 | x12 | %11
w: ~||~|~ ~|||~|~||||
 x10 A,2 | x6 B, B,3 x2 | E,6- x6 | x12 | A,2 A,2 A,2 x2 =D,2 x2 | x12 | x10 |] %18
w: lu-|||||||

